X: 28966
T: Nancy's Letterbox
R: slip jig
M: 9/8
K: Dmajor
|:d2d d2e fed|B2e e2d fed|A2d d2e fed|1 A2a f2e ffe:|2 A2a f2e def||
g2B Bed cde|f2A ABG FGA|B2E EFG ABc|~d3 fed fed|
g2B Bed cde|f2A ABG FGA|~B3 efg efg|a3 a2b f2e||

